!!!COM: Bach, Johann Sebastian
!!!OTL@@DE: 50. In allen meinen Taten
!!!OTL@EN: In all my deeds
!!!SCA: 244.37
**harm	**root	**kern	**kern	**kern	**kern
*staff2	*	*staff2	*staff2	*staff1	*staff1
*Iorgan	*Iorgan	*Iorgan	*Iorgan	*Iorgan	*Iorgan
!	!	!bass	!tenor	!alto	!sprno
*	*	*clefF4	*clefF4	*clefG2	*clefG2
*k[b-e-a-d-g-c-]	*k[b-e-a-d-g-c-]	*k[b-e-a-d-g-c-]	*k[b-e-a-d-g-c-]	*k[b-e-a-d-g-c-]	*k[b-e-a-d-g-c-]
*met(c)	*met(c)	*met(c)	*met(c)	*met(c)	*met(c)
*G-:	*G-:	*G-:	*G-:	*G-:	*G-:
*M4/4	*M4/4	*M4/4	*M4/4	*M4/4	*M4/4
*MM60	*MM60	*MM60	*MM60	*MM60	*MM60
I	4FF	4G-	4d-	4g-	4b-
=1	=1	=1	=1	=1	=1
IV	4BB-	4c-	4e-	4e-	4g-
viiob	4EE	8B-L	8d-L	4f	4a-
.	.	8A-J	8c-J	.	.
I	2FF	4.G-	4.B-	8g-L	(8b-L
.	.	.	.	8a-J	8cc-J
.	.	.	.	4b-	4dd-)
.	.	8F	8A-	.	.
=2	=2	=2	=2	=2	=2
IV7b	4BB-	4E-	4G-	4b-	2cc-
V7b	4CC	4F	4d-	4a-	.
I;	4FF;	4G-;	4d-;	4g-;	4b-;
I	4FF	8G-L	4d-	4g-	8b-L
.	.	8A-J	.	.	8cc-J
=3	=3	=3	=3	=3	=3
Ib	4FF	4B-	4d-	8g-L	4dd-
.	.	.	.	8fJ	.
Ib	4FF	8BB-L	4d-	8g-L	4dd-
.	.	8C-J	.	8a-J	.
V	4CC	4D-	4d-	8fL	4a-
.	.	.	.	8e-J	.
iiib	4AA	4BB-	8d-L	4d-	(8b-L
.	.	.	8cJ	.	8a-J
=4	=4	=4	=4	=4	=4
viio/V	2BB	2E-	8B-L	4d-	2g-)
.	.	.	8A-J	.	.
.	.	.	4G-	4c	.
V;	4CC;	4D-;	4A-;	4d-;	4f;
V7	4CC	4D-	4c-y	4f	4d-
=5	=5	=5	=5	=5	=5
vi	4DD	4E-	4B-	4e-	4g-
Vb	4CC	4F	4A-	4d-	4a-
I	4FF	4G-	4G-	4d-	8b-L
.	.	.	.	.	16cc-L
.	.	.	.	.	16dd-JJ
IV	4BB-	4C-	4G-	4e-	8cc-L
.	.	.	.	.	8b-J
=6	=6	=6	=6	=6	=6
V;	2.CC;	2.D-;	2.d-;	2.f;	2.a-;
Vb/VI	4AA	4D	4B-	4f	4b-
=7	=7	=7	=7	=7	=7
!!linebreak: 2
vi	4DD	4E-	4B-	4e-	4g-
Vb	4CC	4F	4A-	4d-	4a-
I	4FF	4G-	8G-L	4d-	8b-L
.	.	.	8A-J	.	8cc-J
V7b/II	4DD	4G	4B-	4e-	4dd-
=8	=8	=8	=8	=8	=8
ii	2GG	4A-	8A-L	4e-	2cc-
.	.	.	8B-J	.	.
.	.	4AA-	8c-L	4a-	.
.	.	.	8d-J	.	.
V/II;	4DD;	4E-;	4e-;	4g;	4b-;
vi	4DD	4e-	4e-	4g-	8b-L
.	.	.	.	.	8cc-J
=9	=9	=9	=9	=9	=9
Ib	4FF	8B-L	8d-L	4g-	4dd-
.	.	8A-	8c-	.	.
Ib	4FF	8B-	8d-	4g-	4dd-
.	.	8c-J	8e-J	.	.
V	4CC	4d-	4f	8fL	4a-
.	.	.	.	8e-J	.
I	4FF	8G-L	4g-	4d-	(8b-L
.	.	8FJ	.	.	8a-J
=10	=10	=10	=10	=10	=10
vi7	4DD	8E-L	8G-L	4d-	2g-)
.	.	8D-J	8B-J	.	.
V7c/V	4GG	4E-	8A-L	4c	.
.	.	.	8G-J	.	.
V;	4CC;	4D-;	4A-;	4d-;	4f;
V7c	4CC	4C-	4F	4A-	4d-
=11	=11	=11	=11	=11	=11
Ib	4FF	4BB-	8G-L	4d-	4g-
.	.	.	8d-J	.	.
ii	4GG	4AA-	8e-L	4c-	4a-
.	.	.	8fJ	.	.
I	4FF	4GG-	8g-L	8B-L	4b-
.	.	.	8d-J	8d-J	.
IV7b	4BB-	4E-	8c-L	4g-	8a-L
.	.	.	8G-J	.	16b-L
.	.	.	.	.	16cc-JJ
=12	=12	=12	=12	=12	=12
Ic	4FF	8D-L	4.d-	4g-	4b-
.	.	8C-J	.	.	.
V7	4CC	4D-	.	4f	4a-
.	.	.	8c-	.	.
I;	4FF;	4GG-;	4B-;	4d-;	4g-;
==	==	==	==	==	==
*-	*-	*-	*-	*-	*-
!!!ENC: Craig Stuart Sapp
!!!END: 2004/12/06/
!!!ONB: Harmony and Root analysis done manually by Craig Sapp
!!chor2scor: -l 2 -s 0.6 -o %b.pmx
